svg/fluentui-system-icons/ic_fluent_tag_search_24_filled.svg

<svg width="24" height="24" viewBox="0 0 24 24" fill="none" xmlns="http://www.w3.org/2000/svg">
<path d="M21.9998 4.25C21.9998 3.00736 20.9925 2 19.7498 2H14.2845C13.4218 2 12.5946 2.34297 11.985 2.95334L3.48531 11.4632C2.21699 12.7334 2.21862 14.7913 3.48909 16.0592L7.95079 20.5143C9.22195 21.7807 11.2777 21.7798 12.5472 20.5129L12.641 20.419C11.628 19.4214 11 18.034 11 16.5C11 13.4624 13.4624 11 16.5 11C18.0336 11 19.4205 11.6276 20.418 12.6401L21.0482 12.0098C21.6575 11.4003 21.9998 10.5738 21.9998 9.71196V4.25ZM15.4998 7.00216C15.4998 6.17374 16.1714 5.50218 16.9998 5.50218C17.8282 5.50218 18.4998 6.17374 18.4998 7.00216C18.4998 7.83057 17.8282 8.50213 16.9998 8.50213C16.1714 8.50213 15.4998 7.83057 15.4998 7.00216ZM20.1681 19.1074C20.6919 18.3718 21 17.4719 21 16.5C21 14.0147 18.9853 12 16.5 12C14.0147 12 12 14.0147 12 16.5C12 18.9853 14.0147 21 16.5 21C17.4719 21 18.3718 20.6919 19.1074 20.1681L21.7197 22.7803C22.0126 23.0732 22.4874 23.0732 22.7803 22.7803C23.0732 22.4874 23.0732 22.0126 22.7803 21.7197L20.1681 19.1074ZM19.5 16.5C19.5 18.1569 18.1569 19.5 16.5 19.5C14.8431 19.5 13.5 18.1569 13.5 16.5C13.5 14.8431 14.8431 13.5 16.5 13.5C18.1569 13.5 19.5 14.8431 19.5 16.5Z" fill="#212121"/>
</svg>

<svg xmlns="http://www.w3.org/2000/svg" width="24" height="24"><path d="M22 4.25A2.25 2.25 0 0 0 19.75 2h-5.466a3.25 3.25 0 0 0-2.299.953l-8.5 8.51a3.25 3.25 0 0 0 .004 4.596l4.462 4.455a3.255 3.255 0 0 0 4.596-.001l.094-.094a5.5 5.5 0 1 1 7.777-7.779l.63-.63A3.25 3.25 0 0 0 22 9.712V4.25Zm-6.5 2.752a1.5 1.5 0 1 1 3 0 1.5 1.5 0 0 1-3 0Zm4.668 12.105a4.5 4.5 0 1 0-1.06 1.06l2.612 2.613a.75.75 0 1 0 1.06-1.06l-2.612-2.613ZM19.5 16.5a3 3 0 1 1-6 0 3 3 0 0 1 6 0Z"/></svg>
